usr/share/icons/biglinux-icons-material/24/actions/umbrello_diagram_deployment.svg

<svg xmlns="http://www.w3.org/2000/svg" viewBox="0 0 24 24"><path d="M11 3a8 3 0 0 0-8 3v10a8 3 0 0 0 8 3 8 3 0 0 0 8-3V6a8 3 0 0 0-8-3zm0 1a7 2 0 0 1 7 2 7 2 0 0 1-7 2 7 2 0 0 1-7-2 7 2 0 0 1 7-2zm7 3.445V11a7 2 0 0 1-7 2 7 2 0 0 1-7-2V7.451A8 3 0 0 0 11 9a8 3 0 0 0 7-1.555zm0 5V16a7 2 0 0 1-7 2 7 2 0 0 1-7-2v-3.549A8 3 0 0 0 11 14a8 3 0 0 0 7-1.555z" style="fill:currentColor;fill-opacity:1;stroke:none;color:#dedede" transform="translate(1 1)"/></svg>

<svg xmlns="http://www.w3.org/2000/svg" viewBox="0 0 24 24">
  <defs id="defs3051">
    <style type="text/css" id="current-color-scheme">
      .ColorScheme-Text {
        color:#363636;
      }
      </style>
  </defs><g transform="translate(1,1)">
 <path 
    style="fill:currentColor;fill-opacity:1;stroke:none" 
    d="M 11 3 A 8 3 0 0 0 3 6 L 3 16 A 8 3 0 0 0 11 19 A 8 3 0 0 0 19 16 L 19 6 A 8 3 0 0 0 11 3 z M 11 4 A 7 2 0 0 1 18 6 A 7 2 0 0 1 11 8 A 7 2 0 0 1 4 6 A 7 2 0 0 1 11 4 z M 18 7.4453125 L 18 11 A 7 2 0 0 1 11 13 A 7 2 0 0 1 4 11 L 4 7.4511719 A 8 3 0 0 0 11 9 A 8 3 0 0 0 18 7.4453125 z M 18 12.445312 L 18 16 A 7 2 0 0 1 11 18 A 7 2 0 0 1 4 16 L 4 12.451172 A 8 3 0 0 0 11 14 A 8 3 0 0 0 18 12.445312 z "
	class="ColorScheme-Text"
    />  
</g></svg>
